X:155
T:Mrs. Crotty's
T:Pooka, The
R:hornpipe
H:Also played in C. Cf. 2nd part of "The Arkansas Traveller" reel#1067
H:and 2nd part of "Staten Island" hornpipe#116.
D:Jack Talty: In Flow
Z:id:hn-hornpipe-155
M:C|
L:1/8
K:D
(3efg | a2fa g2eg | f2df eAce | dcdf efge | fAdf e2 (3efg |
a2fa g2eg | fadf eAce | dcdf efge |1 f2d2 d2 :|2 f2d2 dfgf ||
|: edBA B2dB | AGFG ABcA | dcdf efge | fAdf efgf |
edBA B2dB | AGFG AB (3cBA | d3f edeg |1 f2d2 dfgf :|2 f2d2 d2 ||

